build/svg/cmd/sc_deleterows.svg

<?xml version="1.0" encoding="UTF-8" standalone="no"?>
<svg
   xmlns:dc="http://purl.org/dc/elements/1.1/"
   xmlns:cc="http://creativecommons.org/ns#"
   xmlns:rdf="http://www.w3.org/1999/02/22-rdf-syntax-ns#"
   xmlns:svg="http://www.w3.org/2000/svg"
   xmlns="http://www.w3.org/2000/svg"
   xmlns:sodipodi="http://sodipodi.sourceforge.net/DTD/sodipodi-0.dtd"
   xmlns:inkscape="http://www.inkscape.org/namespaces/inkscape"
   viewBox="0 0 16 16"
   version="1.1"
   id="svg6"
   sodipodi:docname="sc_deleterows.svg"
   inkscape:version="0.92.4 (5da689c313, 2019-01-14)"
   inkscape:export-filename="/home/jupiter007/Libreoffice yaru theme fullcolor/build/cmd/sc_deleterows.png"
   inkscape:export-xdpi="95"
   inkscape:export-ydpi="95">
  <metadata
     id="metadata12">
    <rdf:RDF>
      <cc:Work
         rdf:about="">
        <dc:format>image/svg+xml</dc:format>
        <dc:type
           rdf:resource="http://purl.org/dc/dcmitype/StillImage" />
      </cc:Work>
    </rdf:RDF>
  </metadata>
  <defs
     id="defs10" />
  <sodipodi:namedview
     pagecolor="#ffffff"
     bordercolor="#666666"
     borderopacity="1"
     objecttolerance="10"
     gridtolerance="10"
     guidetolerance="10"
     inkscape:pageopacity="0"
     inkscape:pageshadow="2"
     inkscape:window-width="1920"
     inkscape:window-height="1011"
     id="namedview8"
     showgrid="true"
     inkscape:zoom="29.5"
     inkscape:cx="5.4666175"
     inkscape:cy="7.1696428"
     inkscape:window-x="0"
     inkscape:window-y="32"
     inkscape:window-maximized="1"
     inkscape:current-layer="svg6">
    <inkscape:grid
       type="xygrid"
       id="grid822" />
  </sodipodi:namedview>
  <rect
     style="opacity:1;fill:#ffffff;fill-opacity:1;stroke:none;stroke-width:2;stroke-linecap:round;stroke-linejoin:round;stroke-miterlimit:4;stroke-dasharray:none;stroke-opacity:1"
     id="rect822"
     width="10"
     height="10"
     x="3"
     y="3" />
  <path
     d="M 5,2 C 3,2 2,2 2,4 v 1 6 1 c 0,2 1,2 3,2 h 6 c 2,0 3,0 3,-2 V 11 5 4 C 14,2 13,2 11,2 Z M 5,3 H 6 V 5 H 7 V 3 h 2 v 2 h 1 V 3 h 1 c 1,0 2,0 2,1 v 1 6 1 c 0,1 -1,1 -2,1 H 10 V 11 H 9 v 2 H 7 V 11 H 6 v 2 H 5 C 4,13 3,13 3,12 V 11 5 4 C 3,3 4,3 5,3 Z"
     id="path2"
     inkscape:connector-curvature="0"
     style="fill:#6d6d6d;fill-opacity:1"
     sodipodi:nodetypes="cccccccccccccccccccccccccccccccccccccccccc" />
  <path
     d="m3 5v1.71875l3.28125 3.28125h-3.28125v1h4.28125 4 1.71875v-1h-1.28125l-4-4h2.5625l2.71875 2.71875v-1.4375l-1.28125-1.28125h1.28125v-1zm.71875 1h2.5625l4 4h-2.5625z"
     fill="#c7162b"
     id="path4" />
  <circle
     style="opacity:1;vector-effect:none;fill:#c7162b;fill-opacity:1;stroke:none;stroke-width:3.49999976;stroke-linecap:butt;stroke-linejoin:round;stroke-miterlimit:4;stroke-dasharray:none;stroke-dashoffset:0;stroke-opacity:1"
     id="path2644"
     cy="12.5"
     cx="12.5"
     r="3.5" />
  <path
     inkscape:connector-curvature="0"
     id="path1063"
     overflow="visible"
     font-weight="400"
     style="color:#000000;font-weight:400;line-height:normal;font-family:sans-serif;text-indent:0;text-align:start;text-decoration:none;text-decoration-line:none;text-decoration-style:solid;text-decoration-color:#000000;text-transform:none;white-space:normal;overflow:visible;isolation:auto;mix-blend-mode:normal;fill:#ffffff;fill-opacity:1;marker:none"
     d="M 13.914214,10.378679 12.5,11.792892 l -1.414214,-1.414213 -0.707106,0.707106 1.414213,1.414214 -1.414213,1.414214 0.707106,0.707106 1.414214,-1.414213 1.414214,1.414213 0.707106,-0.707106 -1.414213,-1.414214 1.414213,-1.414214 z" />
</svg>

<svg xmlns="http://www.w3.org/2000/svg" viewBox="0 0 16 16"><path fill="#fff" d="M3 3h10v10H3z"/><path d="M5 2C3 2 2 2 2 4v8c0 2 1 2 3 2h6c2 0 3 0 3-2V4c0-2-1-2-3-2zm0 1h1v2h1V3h2v2h1V3h1c1 0 2 0 2 1v8c0 1-1 1-2 1h-1v-2H9v2H7v-2H6v2H5c-1 0-2 0-2-1V4c0-1 1-1 2-1z" fill="#6d6d6d"/><path d="M3 5v1.719L6.281 10H3v1H13v-1h-1.281l-4-4h2.562L13 8.719V7.28L11.719 6H13V5zm.719 1H6.28l4 4H7.72z" fill="#c7162b"/><circle cy="12.5" cx="12.5" r="3.5" fill="#c7162b"/><path overflow="visible" font-weight="400" style="line-height:normal;text-indent:0;text-align:start;text-decoration-line:none;text-decoration-style:solid;text-decoration-color:#000;text-transform:none;white-space:normal;isolation:auto;mix-blend-mode:normal;marker:none" d="M13.914 10.379L12.5 11.793l-1.414-1.414-.707.707 1.414 1.414-1.414 1.414.707.707 1.414-1.414 1.414 1.414.707-.707-1.414-1.414 1.414-1.414z" color="#000" font-family="sans-serif" fill="#fff"/></svg>
